X: 8747
T: Cuaichin Ghleann Neifin
R: slip jig
M: 9/8
K: Gmajor
|:d2c|B3 B2c d2e|d2c A2c B2A|G3 G2A B2d|d2c A3 def|
g3g2g f2g|e3 d2e f2e|d3d2c A2F|G2F G3:|

